; generated by PrusaSlicer 2.6.0+linux-x64-GTK3 on 2023-08-24 at 20:40:23 UTC


;
;

;
;
; 

; external perimeters extrusion width = 0.45mm
; perimeters extrusion width = 0.45mm
; infill extrusion width = 0.45mm
; solid infill extrusion width = 0.45mm
; top infill extrusion width = 0.40mm
; support material extrusion width = 0.38mm
; first layer extrusion width = 0.42mm

; external perimeters extrusion width = 0.45mm
; perimeters extrusion width = 0.45mm
; infill extrusion width = 0.45mm
; solid infill extrusion width = 0.45mm
; top infill extrusion width = 0.40mm
; support material extrusion width = 0.38mm
; first layer extrusion width = 0.42mm

; external perimeters extrusion width = 0.45mm
; perimeters extrusion width = 0.45mm
; infill extrusion width = 0.45mm
; solid infill extrusion width = 0.45mm
; top infill extrusion width = 0.40mm
; support material extrusion width = 0.38mm
; first layer extrusion width = 0.42mm

; external perimeters extrusion width = 0.45mm
; perimeters extrusion width = 0.45mm
; infill extrusion width = 0.45mm
; solid infill extrusion width = 0.45mm
; top infill extrusion width = 0.40mm
; support material extrusion width = 0.38mm
; first layer extrusion width = 0.42mm

;TYPE:Custom
M413 S0 ; disable Power Loss Recovery
G90 ; use absolute coordinates
M83 ; extruder relative mode
M104 S120 ; set temporary nozzle temp to prevent oozing during homing and auto bed leveling
M140 S60 ; set final bed temp
G4 S10 ; allow partial nozzle warmup
G28 ; home all axis
G1 Z50 F240
G1 X2 Y10 F3000
M104 S210 ; set final nozzle temp
M190 S60 ; wait for bed temp to stabilize
M109 S210 ; wait for nozzle temp to stabilize
G1 Z0.28 F240
G92 E0
G1 Y140 E10 F1500 ; prime the nozzle
G1 X2.3 F5000
G92 E0
G1 Y10 E10 F1200 ; prime the nozzle
G92 E0
G21 ; set units to millimeters
G90 ; use absolute coordinates
M83 ; use relative distances for extrusion
; Filament gcode
M107
;LAYER_CHANGE
;Z:0.2
;HEIGHT:0.2
;BEFORE_LAYER_CHANGE
G92 E0
;0.2


G1 E-5 F3600
G1 Z.2 F9000
;AFTER_LAYER_CHANGE
;0.2
G1 X28.112 Y63.279
G1 E5 F2400
;TYPE:Skirt/Brim
;WIDTH:0.42
G1 F1200
G1 X28.967 Y63.118 E.02728
G1 X38.314 Y63.092 E.29307
G1 X186.84 Y63.089 E4.65693
G1 X196.181 Y63.115 E.29288
G1 X197.487 Y63.51 E.04278
G1 X198.112 Y64.115 E.02727
G1 X202.731 Y70.615 E.25002
G1 X203.17 Y71.958 E.0443
G1 X203.963 Y127.204 E1.73238
G1 X203.962 Y137.237 E.31458
G1 X203.585 Y164.212 E.84586
G1 X203.192 Y165.488 E.04186
G1 X198.573 Y172.488 E.26296
G1 X197.526 Y173.363 E.04278
G1 X196.589 Y173.555 E.02999
G1 X29.388 Y173.558 E5.24247
G1 X28.081 Y173.167 E.04277
G1 X27.404 Y172.491 E.03
G1 X22.785 Y165.491 E.26296
G1 X22.392 Y164.212 E.04195
G1 X21.69 Y110.4 E1.68738
G1 X21.69 Y100.345 E.31527
G1 X21.977 Y71.971 E.88969
G1 X22.417 Y70.618 E.04461
G1 X27.036 Y64.118 E.25002
G1 X28.064 Y63.316 E.04088
G1 E-3.5 F3600
;WIPE_START
G1 F7200
G1 X28.967 Y63.118 E-.43912
G1 X31.2 Y63.112 E-1.06088
;WIPE_END
G1 X29.305 Y66.215 F9000
G1 E5 F2400
;TYPE:Perimeter
;WIDTH:0.419999
G1 F1200
G1 X29.407 Y66.182 E.00336
G1 X30.614 Y66.182 E.03784
G1 X30.614 Y72.618 E.2018
G1 X30.676 Y72.876 E.00832
G1 X30.761 Y72.998 E.00466
G1 X30.913 Y73.117 E.00605
G1 X31.18 Y73.184 E.00863
G1 X38.428 Y73.184 E.22726
G1 X38.525 Y73.175 E.00305
G1 X38.804 Y73.04 E.00972
G1 X38.921 Y72.895 E.00584
G1 X38.993 Y72.619 E.00894
G1 X39.001 Y66.156 E.20264
G1 X42.627 Y66.156 E.11369
G1 X42.627 Y72.616 E.20255
G1 X42.648 Y72.77 E.00487
G1 X42.76 Y72.981 E.00749
G1 X42.923 Y73.113 E.00658
G1 X43.193 Y73.182 E.00874
G1 X72.034 Y73.175 E.90429
G1 X72.312 Y73.041 E.00968
G1 X72.43 Y72.895 E.00589
G1 X72.502 Y72.618 E.00897
G1 X72.502 Y66.156 E.20261
G1 X76.128 Y66.156 E.11369
G1 X76.128 Y72.618 E.20261
G1 X76.149 Y72.771 E.00484
G1 X76.261 Y72.983 E.00752
G1 X76.424 Y73.116 E.0066
G1 X76.694 Y73.184 E.00873
G1 X83.937 Y73.184 E.2271
G1 X84.034 Y73.175 E.00305
G1 X84.312 Y73.041 E.00968
G1 X84.43 Y72.895 E.00589
G1 X84.502 Y72.618 E.00897
G1 X84.502 Y66.156 E.20261
G1 X88.128 Y66.156 E.11369
G1 X88.128 Y72.618 E.20261
G1 X88.149 Y72.771 E.00484
G1 X88.261 Y72.983 E.00752
G1 X88.424 Y73.116 E.0066
G1 X88.694 Y73.184 E.00873
G1 X136.551 Y73.172 E1.50052
G1 X136.829 Y73.038 E.00968
G1 X136.947 Y72.893 E.00586
G1 X137.019 Y72.615 E.009
G1 X137.019 Y66.153 E.20261
G1 X140.645 Y66.153 E.11369
G1 X140.645 Y72.615 E.20261
G1 X140.666 Y72.768 E.00484
G1 X140.778 Y72.98 E.00752
G1 X140.941 Y73.113 E.0066
G1 X141.211 Y73.181 E.00873
G1 X148.454 Y73.181 E.2271
G1 X148.551 Y73.172 E.00305
G1 X148.829 Y73.038 E.00968
G1 X148.947 Y72.893 E.00586
G1 X149.019 Y72.615 E.009
G1 X149.019 Y66.153 E.20261
G1 X152.645 Y66.153 E.11369
G1 X152.645 Y72.615 E.20261
G1 X152.666 Y72.768 E.00484
G1 X152.778 Y72.98 E.00752
G1 X152.941 Y73.113 E.0066
G1 X153.211 Y73.181 E.00873
G1 X182.052 Y73.17 E.90429
G1 X182.331 Y73.036 E.0097
G1 X182.448 Y72.891 E.00584
G1 X182.52 Y72.614 E.00897
G1 X182.52 Y66.153 E.20258
G1 X186.147 Y66.153 E.11372
G1 X186.154 Y72.611 E.20249
G1 X186.175 Y72.768 E.00497
G1 X186.287 Y72.979 E.00749
G1 X186.45 Y73.112 E.0066
G1 X186.72 Y73.181 E.00874
G1 X194.05 Y73.175 E.22983
G1 X194.285 Y73.084 E.0079
G1 X194.471 Y72.873 E.00882
G1 X194.533 Y72.615 E.00832
G1 X194.533 Y66.179 E.2018
G1 X195.382 Y66.179 E.02662
G1 X195.843 Y66.212 E.01449
G1 X200.106 Y72.211 E.23075
G1 X200.106 Y81.786 E.30022
G1 X195.822 Y88.278 E.24388
G1 X195.74 Y88.305 E.00271
G1 X192.863 Y88.305 E.09021
G1 X192.863 Y78.87 E.29583
G1 X192.786 Y78.585 E.00926
G1 X192.58 Y78.38 E.00911
G1 X192.298 Y78.305 E.00915
G1 X32.85 Y78.308 E4.99937
G1 X32.568 Y78.383 E.00915
G1 X32.361 Y78.588 E.00913
G1 X32.284 Y78.873 E.00926
G1 X32.284 Y88.308 E.29583
G1 X30.372 Y88.308 E.05995
G1 X29.325 Y88.281 E.03284
G1 X25.041 Y81.789 E.24388
G1 X25.041 Y72.214 E.30022
G1 X29.27 Y66.264 E.22888
G1 X29.08 Y65.879 F9000
;TYPE:External perimeter
G1 F1200
G1 X29.246 Y65.862 E.00523
G1 X29.285 Y65.805 E.00217
G1 X30.991 Y65.805 E.05349
G1 X30.991 Y72.618 E.21362
G1 X31.04 Y72.745 E.00427
G1 X31.18 Y72.807 E.0048
G1 X38.428 Y72.807 E.22726
G1 X38.553 Y72.759 E.0042
G1 X38.616 Y72.618 E.00484
G1 X38.624 Y65.779 E.21443
G1 X43.004 Y65.779 E.13733
G1 X43.004 Y72.616 E.21437
G1 X43.049 Y72.738 E.00408
G1 X43.193 Y72.805 E.00498
G1 X71.937 Y72.807 E.90125
G1 X72.062 Y72.759 E.0042
G1 X72.125 Y72.618 E.00484
G1 X72.125 Y65.779 E.21443
G1 X76.505 Y65.779 E.13733
G1 X76.505 Y72.618 E.21443
G1 X76.55 Y72.74 E.00408
G1 X76.694 Y72.807 E.00498
G1 X83.937 Y72.807 E.2271
G1 X84.062 Y72.759 E.0042
G1 X84.125 Y72.618 E.00484
G1 X84.125 Y65.779 E.21443
G1 X88.505 Y65.779 E.13733
G1 X88.505 Y72.618 E.21443
G1 X88.55 Y72.74 E.00408
G1 X88.694 Y72.807 E.00498
G1 X136.454 Y72.804 E1.49748
G1 X136.579 Y72.756 E.0042
G1 X136.642 Y72.615 E.00484
G1 X136.642 Y65.776 E.21443
G1 X141.022 Y65.776 E.13733
G1 X141.022 Y72.615 E.21443
G1 X141.067 Y72.737 E.00408
G1 X141.211 Y72.804 E.00498
G1 X148.454 Y72.804 E.2271
G1 X148.579 Y72.756 E.0042
G1 X148.642 Y72.615 E.00484
G1 X148.642 Y65.776 E.21443
G1 X153.022 Y65.776 E.13733
G1 X153.022 Y72.615 E.21443
G1 X153.067 Y72.737 E.00408
G1 X153.211 Y72.804 E.00498
G1 X181.955 Y72.802 E.90125
G1 X182.08 Y72.754 E.0042
G1 X182.143 Y72.614 E.00481
G1 X182.143 Y65.776 E.2144
G1 X186.523 Y65.776 E.13733
G1 X186.531 Y72.611 E.21431
G1 X186.575 Y72.737 E.00418
G1 X186.72 Y72.804 E.00501
G1 X193.968 Y72.804 E.22726
G1 X194.087 Y72.761 E.00397
G1 X194.156 Y72.615 E.00506
G1 X194.156 Y65.802 E.21362
G1 X195.863 Y65.802 E.05352
G1 X195.901 Y65.859 E.00215
G1 X196.053 Y65.856 E.00477
G1 X200.483 Y72.091 E.23981
G1 X200.483 Y81.899 E.30752
G1 X196.052 Y88.614 E.25225
G1 X195.9 Y88.63 E.00479
G1 X195.865 Y88.682 E.00197
G1 X192.486 Y88.682 E.10595
G1 X192.486 Y78.87 E.30765
G1 X192.446 Y78.754 E.00385
G1 X192.298 Y78.682 E.00516
G1 X32.85 Y78.685 E4.99937
G1 X32.733 Y78.725 E.00388
G1 X32.661 Y78.873 E.00516
G1 X32.661 Y88.685 E.30765
G1 X29.282 Y88.685 E.10595
G1 X29.248 Y88.633 E.00195
G1 X29.105 Y88.632 E.00448
G1 X24.664 Y81.902 E.25282
G1 X24.664 Y72.094 E.30752
G1 X29.046 Y65.928 E.23718
G1 X29.223 Y65.965 F9000
G1 E-3.5 F3600
;WIPE_START
G1 F7200
G1 X29.246 Y65.862 E-.10004
G1 X29.285 Y65.805 E-.03281
G1 X30.991 Y65.805 E-.81035
G1 X30.991 Y66.977 E-.5568
;WIPE_END
G1 X197.397 Y71.701 F9000
G1 E5 F2400
;TYPE:Perimeter
G1 F1200
G1 X197.418 Y71.783 E.00265
G1 X197.392 Y72.27 E.01529
G1 X197.287 Y72.471 E.00711
G1 X197.136 Y72.6 E.00623
G1 X196.848 Y72.679 E.00936
G1 X195.913 Y72.676 E.02932
G1 X195.649 Y72.578 E.00883
G1 X195.473 Y72.38 E.00831
G1 X195.406 Y72.113 E.00863
G1 X195.406 Y71.755 E.01122
G1 X195.524 Y71.41 E.01143
G1 X195.766 Y71.229 E.00948
G1 X196.145 Y71.194 E.01193
G1 X196.866 Y71.211 E.02261
G1 X197.128 Y71.283 E.00852
G1 X197.344 Y71.496 E.00951
G1 X197.382 Y71.643 E.00476
G1 X197.041 Y71.779 F9000
;TYPE:External perimeter
G1 F1200
G1 X197.03 Y72.165 E.01211
G1 X196.944 Y72.276 E.0044
G1 X195.952 Y72.301 E.03111
G1 X195.864 Y72.268 E.00295
G1 X195.783 Y72.113 E.00548
G1 X195.783 Y71.755 E.01122
G1 X195.823 Y71.64 E.00382
G1 X195.976 Y71.567 E.00532
G1 X196.857 Y71.588 E.02763
G1 X197.006 Y71.667 E.00529
G1 X197.023 Y71.721 E.00178
G1 X197.412 Y71.888 F9000
G1 E-3.5 F3600
;WIPE_START
G1 F7200
G1 X197.03 Y72.165 E-.21093
G1 X196.944 Y72.276 E-.0667
G1 X195.952 Y72.301 E-.47135
G1 X195.864 Y72.268 E-.04464
G1 X195.783 Y72.113 E-.08307
G1 X195.783 Y71.755 E-.17005
G1 X195.823 Y71.64 E-.05784
G1 X195.976 Y71.567 E-.08052
G1 X196.639 Y71.583 E-.3149
;WIPE_END
G1 X197.675 Y81.837 F9000
G1 E5 F2400
;TYPE:Perimeter
G1 F1200
G1 X197.692 Y82.2 E.01139
G1 X197.599 Y82.518 E.01039
G1 X197.401 Y82.702 E.00847
G1 X197.141 Y82.772 E.00844
G1 X195.986 Y82.802 E.03623
G1 X195.818 Y82.781 E.00531
G1 X195.636 Y82.691 E.00637
G1 X195.474 Y82.505 E.00773
G1 X195.406 Y82.236 E.0087
G1 X195.406 Y81.87 E.01148
G1 X195.451 Y81.649 E.00707
G1 X195.568 Y81.474 E.0066
G1 X195.859 Y81.316 E.01038
G1 X197.122 Y81.305 E.0396
G1 X197.415 Y81.386 E.00953
G1 X197.567 Y81.52 E.00635
G1 X197.669 Y81.727 E.00724
G1 X197.672 Y81.777 E.00157
G1 X197.311 Y81.868 F9000
;TYPE:External perimeter
G1 F1200
G1 X197.29 Y82.301 E.01359
G1 X197.218 Y82.372 E.00317
G1 X197.131 Y82.395 E.00282
G1 X195.977 Y82.425 E.0362
G1 X195.86 Y82.388 E.00385
G1 X195.783 Y82.236 E.00534
G1 X195.798 Y81.796 E.0138
G1 X195.886 Y81.702 E.00404
G1 X195.934 Y81.686 E.00159
G1 X197.122 Y81.682 E.03725
G1 X197.27 Y81.754 E.00516
G1 X197.291 Y81.811 E.0019
G1 X197.694 Y81.983 F9000
G1 E-3.5 F3600
;WIPE_START
G1 F7200
G1 X197.29 Y82.301 E-.23275
G1 X197.218 Y82.372 E-.04803
G1 X197.131 Y82.395 E-.04274
G1 X195.977 Y82.425 E-.54834
G1 X195.86 Y82.388 E-.05829
G1 X195.783 Y82.236 E-.08094
G1 X195.798 Y81.796 E-.20912
G1 X195.886 Y81.702 E-.06116
G1 X195.934 Y81.686 E-.02403
G1 X196.344 Y81.685 E-.1946
;WIPE_END
G1 X27.749 Y72.151 F9000
G1 E5 F2400
;TYPE:Perimeter
G1 F1200
G1 X27.729 Y71.786 E.01146
G1 X27.834 Y71.452 E.01098
G1 X28.019 Y71.286 E.00779
G1 X28.282 Y71.214 E.00855
G1 X29.162 Y71.193 E.0276
G1 X29.382 Y71.232 E.00701
G1 X29.623 Y71.413 E.00945
G1 X29.741 Y71.758 E.01143
G1 X29.733 Y72.214 E.0143
G1 X29.674 Y72.383 E.00561
G1 X29.498 Y72.581 E.00831
G1 X29.234 Y72.679 E.00883
G1 X28.299 Y72.682 E.02932
G1 X28.011 Y72.603 E.00936
G1 X27.861 Y72.474 E.0062
G1 X27.755 Y72.273 E.00712
G1 X27.752 Y72.211 E.00195
G1 X28.11 Y72.118 F9000
;TYPE:External perimeter
G1 F1200
G1 X28.131 Y71.686 E.01356
G1 X28.203 Y71.615 E.00317
G1 X29.011 Y71.574 E.02537
G1 X29.244 Y71.583 E.00731
G1 X29.325 Y71.643 E.00316
G1 X29.364 Y71.758 E.00381
G1 X29.342 Y72.205 E.01403
G1 X29.212 Y72.301 E.00507
G1 X28.299 Y72.305 E.02863
G1 X28.153 Y72.235 E.00508
G1 X28.131 Y72.175 E.002
G1 X27.727 Y72.003 F9000
G1 E-3.5 F3600
;WIPE_START
G1 F7200
G1 X28.131 Y71.686 E-.23227
G1 X28.203 Y71.615 E-.04803
G1 X29.011 Y71.574 E-.38429
G1 X29.244 Y71.583 E-.11076
G1 X29.325 Y71.643 E-.04788
G1 X29.364 Y71.758 E-.05768
G1 X29.342 Y72.205 E-.21258
G1 X29.212 Y72.301 E-.07676
G1 X28.518 Y72.304 E-.32975
;WIPE_END
G1 X27.501 Y81.685 F9000
G1 E5 F2400
;TYPE:Perimeter
G1 F1200
G1 X27.581 Y81.523 E.00566
G1 X27.733 Y81.389 E.00635
G1 X28.025 Y81.308 E.0095
G1 X29.176 Y81.308 E.03609
G1 X29.433 Y81.37 E.00829
G1 X29.58 Y81.477 E.0057
G1 X29.696 Y81.652 E.00658
G1 X29.741 Y81.873 E.00707
G1 X29.733 Y82.337 E.01455
G1 X29.673 Y82.508 E.00568
G1 X29.512 Y82.694 E.00771
G1 X29.329 Y82.784 E.00639
G1 X29.161 Y82.805 E.00531
G1 X28.006 Y82.775 E.03623
G1 X27.747 Y82.705 E.00841
G1 X27.53 Y82.492 E.00953
G1 X27.455 Y82.203 E.00936
G1 X27.477 Y81.739 E.01456
G1 X27.832 Y82.207 F9000
;TYPE:External perimeter
G1 F1200
G1 X27.843 Y81.826 E.01195
G1 X27.928 Y81.712 E.00446
G1 X28.761 Y81.685 E.02613
G1 X29.261 Y81.705 E.01569
G1 X29.349 Y81.799 E.00404
G1 X29.361 Y82.272 E.01484
G1 X29.288 Y82.391 E.00438
G1 X29.171 Y82.428 E.00385
G1 X28.016 Y82.398 E.03623
G1 X27.863 Y82.314 E.00547
G1 X27.849 Y82.265 E.0016
G1 X27.466 Y82.1 F9000
G1 E-3.5 F3600
;WIPE_START
G1 F7200
G1 X27.843 Y81.826 E-.20854
G1 X27.928 Y81.712 E-.06755
G1 X28.761 Y81.685 E-.39588
G1 X29.261 Y81.705 E-.23769
G1 X29.349 Y81.799 E-.06116
G1 X29.361 Y82.272 E-.22475
G1 X29.288 Y82.391 E-.06631
G1 X29.171 Y82.428 E-.05829
G1 X28.793 Y82.418 E-.17983
;WIPE_END
G1 X197.679 Y68.99 F9000
G1 E5 F2400
;TYPE:Solid infill
;WIDTH:0.420119
G1 F1200
G1 X195.15 Y66.462 E.11215
G1 X194.816 Y66.462 E.01048
G1 X194.816 Y66.661 E.00624
G1 X198.269 Y70.114 E.15316
G1 X199.579 Y71.958 E.07094
G1 X194.816 Y67.195 E.21127
G1 X194.816 Y67.728 E.01672
G1 X199.823 Y72.735 E.22209
G1 X199.823 Y73.269 E.01675
G1 X194.816 Y68.262 E.22209
G1 X194.816 Y68.795 E.01672
G1 X196.974 Y70.953 E.09572
G1 X197.262 Y71.032 E.00937
G1 X197.451 Y71.173 E.0074
G1 X197.621 Y71.413 E.00922
G1 X197.674 Y71.653 E.00771
G1 X199.823 Y73.802 E.09532
G1 X199.823 Y74.336 E.01675
G1 X197.686 Y72.199 E.09479
G1 X197.664 Y72.351 E.00482
G1 X197.541 Y72.587 E.00835
G1 X199.823 Y74.869 E.10122
G1 X199.823 Y75.403 E.01675
G1 X197.27 Y72.849 E.11326
G1 X197.051 Y72.938 E.00741
G1 X196.849 Y72.962 E.00638
G1 X199.823 Y75.936 E.13191
G1 X199.823 Y76.469 E.01672
G1 X196.143 Y72.789 E.16323
G1 X196.579 Y71.091 F9000
G1 F1200
G1 X194.816 Y69.328 E.0782
G1 X194.816 Y69.862 E.01675
G1 X195.879 Y70.925 E.04715
G1 X195.659 Y70.964 E.00701
G1 X195.502 Y71.081 E.00614
G1 X194.816 Y70.395 E.03043
G1 X194.816 Y70.929 E.01675
G1 X195.251 Y71.364 E.01929
G1 X195.124 Y71.77 E.01334
G1 X194.816 Y71.462 E.01366
G1 X194.816 Y71.996 E.01675
G1 X199.823 Y77.003 E.22209
G1 X199.823 Y77.536 E.01672
G1 X194.816 Y72.529 E.22209
G1 X194.816 Y72.626 E.00304
G1 X194.731 Y72.978 E.01136
G1 X199.823 Y78.07 E.22586
G1 X199.823 Y78.603 E.01672
G1 X194.49 Y73.27 E.23655
G1 X194.368 Y73.365 E.00485
G1 X194.13 Y73.443 E.00786
G1 X199.823 Y79.137 E.25254
G1 X199.823 Y79.67 E.01672
G1 X193.609 Y73.456 E.27563
G1 X193.077 Y73.457 E.01669
G1 X199.823 Y80.203 E.29922
G1 X199.823 Y80.737 E.01675
G1 X192.544 Y73.457 E.32289
G1 X192.011 Y73.458 E.01672
G1 X199.823 Y81.27 E.34651
G1 X199.823 Y81.701 E.01352
G1 X199.782 Y81.763 E.00233
G1 X191.478 Y73.459 E.36833
G1 X190.945 Y73.459 E.01672
G1 X199.57 Y82.084 E.38257
G1 X199.358 Y82.406 E.01209
G1 X190.412 Y73.46 E.39681
G1 X189.879 Y73.46 E.01672
G1 X199.146 Y82.727 E.41104
G1 X198.934 Y83.048 E.01207
G1 X197.974 Y82.088 E.04258
G1 X197.975 Y82.206 E.0037
G1 X197.903 Y82.55 E.01102
G1 X198.722 Y83.37 E.03635
G1 X198.51 Y83.691 E.01207
G1 X197.668 Y82.849 E.03735
G1 X197.535 Y82.953 E.0053
G1 X197.302 Y83.016 E.00757
G1 X198.298 Y84.012 E.04418
G1 X198.086 Y84.334 E.01209
G1 X196.815 Y83.064 E.05635
G1 X196.295 Y83.077 E.01631
G1 X197.996 Y84.778 E.07545
G1 E-3.5 F3600
;WIPE_START
G1 F7200
G1 X196.295 Y83.077 E-1.14265
G1 X196.815 Y83.064 E-.24708
G1 X196.979 Y83.228 E-.11027
;WIPE_END
G1 X197.077 Y81.192 F9000
G1 E5 F2400
G1 F1200
G1 X189.347 Y73.461 E.34289
G1 X188.814 Y73.461 E.01672
G1 X196.374 Y81.022 E.33535
G1 X195.852 Y81.033 E.01638
G1 X188.281 Y73.462 E.33582
G1 X187.748 Y73.463 E.01672
G1 X192.308 Y78.022 E.20224
G1 X192.52 Y78.051 E.00671
G1 X192.718 Y78.133 E.00672
G1 X192.827 Y78.207 E.00413
