; generated by PrusaSlicer 2.6.0+linux-x64-GTK3 on 2023-08-24 at 20:38:25 UTC


;
;

;
;
; 

; external perimeters extrusion width = 0.45mm
; perimeters extrusion width = 0.45mm
; infill extrusion width = 0.45mm
; solid infill extrusion width = 0.45mm
; top infill extrusion width = 0.40mm
; support material extrusion width = 0.38mm
; first layer extrusion width = 0.42mm

;TYPE:Custom
M413 S0 ; disable Power Loss Recovery
G90 ; use absolute coordinates
M83 ; extruder relative mode
M104 S120 ; set temporary nozzle temp to prevent oozing during homing and auto bed leveling
M140 S60 ; set final bed temp
G4 S10 ; allow partial nozzle warmup
G28 ; home all axis
G1 Z50 F240
G1 X2 Y10 F3000
M104 S210 ; set final nozzle temp
M190 S60 ; wait for bed temp to stabilize
M109 S210 ; wait for nozzle temp to stabilize
G1 Z0.28 F240
G92 E0
G1 Y140 E10 F1500 ; prime the nozzle
G1 X2.3 F5000
G92 E0
G1 Y10 E10 F1200 ; prime the nozzle
G92 E0
G21 ; set units to millimeters
G90 ; use absolute coordinates
M83 ; use relative distances for extrusion
; Filament gcode
M107
;LAYER_CHANGE
;Z:0.2
;HEIGHT:0.2
;BEFORE_LAYER_CHANGE
G92 E0
;0.2


G1 E-5 F3600
G1 Z.2 F9000
;AFTER_LAYER_CHANGE
;0.2
G1 X27.188 Y118.509
G1 E5 F2400
;TYPE:Skirt/Brim
;WIDTH:0.42
G1 F1200
G1 X28.042 Y118.348 E.02725
G1 X185.915 Y118.319 E4.95
G1 X195.256 Y118.345 E.29288
G1 X196.562 Y118.74 E.04278
G1 X197.188 Y119.345 E.0273
G1 X201.807 Y125.845 E.25002
G1 X202.246 Y127.222 E.04532
G1 X202.246 Y137.222 E.31354
G1 X201.853 Y138.531 E.04285
G1 X197.234 Y145.531 E.26296
G1 X196.187 Y146.406 E.04278
G1 X195.25 Y146.599 E.03
G1 X28.049 Y146.602 E5.24247
G1 X26.742 Y146.21 E.04278
G1 X26.065 Y145.534 E.03
G1 X21.446 Y138.534 E.26296
G1 X21.053 Y137.225 E.04285
G1 X21.053 Y127.225 E.31354
G1 X21.492 Y125.848 E.04532
G1 X26.111 Y119.348 E.25002
G1 X27.14 Y118.546 E.04091
G1 E-3.5 F3600
;WIPE_START
G1 F7200
G1 X28.042 Y118.348 E-.43865
G1 X30.276 Y118.348 E-1.06135
;WIPE_END
G1 X28.38 Y121.445 F9000
G1 E5 F2400
;TYPE:Perimeter
;WIDTH:0.419999
G1 F1200
G1 X28.483 Y121.412 E.00339
G1 X29.69 Y121.412 E.03784
G1 X29.69 Y127.848 E.2018
G1 X29.752 Y128.106 E.00832
G1 X29.836 Y128.228 E.00464
G1 X29.989 Y128.347 E.00608
G1 X30.255 Y128.414 E.0086
G1 X37.503 Y128.414 E.22726
G1 X37.601 Y128.405 E.00309
G1 X37.88 Y128.27 E.00972
G1 X37.997 Y128.125 E.00584
G1 X38.069 Y127.849 E.00894
G1 X38.076 Y121.386 E.20264
G1 X41.703 Y121.386 E.11372
G1 X41.703 Y127.846 E.20255
G1 X41.724 Y128 E.00487
G1 X41.836 Y128.211 E.00749
G1 X41.999 Y128.343 E.00658
G1 X42.268 Y128.412 E.00871
G1 X71.11 Y128.405 E.90432
G1 X71.388 Y128.271 E.00968
G1 X71.505 Y128.125 E.00587
G1 X71.578 Y127.848 E.00898
G1 X71.578 Y121.386 E.20261
G1 X75.204 Y121.386 E.11369
G1 X75.204 Y127.848 E.20261
G1 X75.225 Y128.001 E.00484
G1 X75.337 Y128.213 E.00752
G1 X75.5 Y128.346 E.0066
G1 X75.769 Y128.414 E.0087
G1 X83.012 Y128.414 E.2271
G1 X83.11 Y128.405 E.00309
G1 X83.388 Y128.271 E.00968
G1 X83.505 Y128.125 E.00587
G1 X83.578 Y127.848 E.00898
G1 X83.578 Y121.386 E.20261
G1 X87.204 Y121.386 E.11369
G1 X87.204 Y127.848 E.20261
G1 X87.225 Y128.001 E.00484
G1 X87.337 Y128.213 E.00752
G1 X87.5 Y128.346 E.0066
G1 X87.769 Y128.414 E.0087
G1 X135.627 Y128.402 E1.50055
G1 X135.905 Y128.268 E.00968
G1 X136.022 Y128.123 E.00584
G1 X136.095 Y127.845 E.00901
G1 X136.095 Y121.383 E.20261
G1 X139.721 Y121.383 E.11369
G1 X139.721 Y127.845 E.20261
G1 X139.742 Y127.998 E.00484
G1 X139.854 Y128.21 E.00752
G1 X140.017 Y128.343 E.0066
G1 X140.286 Y128.411 E.0087
G1 X147.529 Y128.411 E.2271
G1 X147.627 Y128.402 E.00309
G1 X147.905 Y128.268 E.00968
G1 X148.022 Y128.122 E.00587
G1 X148.095 Y127.845 E.00898
G1 X148.095 Y121.383 E.20261
G1 X151.721 Y121.383 E.11369
G1 X151.721 Y127.845 E.20261
G1 X151.742 Y127.998 E.00484
G1 X151.854 Y128.21 E.00752
G1 X152.017 Y128.343 E.0066
G1 X152.286 Y128.411 E.0087
G1 X181.128 Y128.4 E.90432
G1 X181.406 Y128.266 E.00968
G1 X181.523 Y128.121 E.00584
G1 X181.596 Y127.844 E.00898
G1 X181.596 Y121.383 E.20258
G1 X185.222 Y121.383 E.11369
G1 X185.23 Y127.841 E.20249
G1 X185.251 Y127.998 E.00497
G1 X185.363 Y128.209 E.00749
G1 X185.525 Y128.342 E.00657
G1 X185.795 Y128.411 E.00874
G1 X193.125 Y128.405 E.22983
G1 X193.36 Y128.314 E.0079
G1 X193.547 Y128.103 E.00884
G1 X193.609 Y127.845 E.00832
G1 X193.609 Y121.409 E.2018
G1 X194.457 Y121.409 E.02659
G1 X194.919 Y121.442 E.01452
G1 X199.182 Y127.441 E.23075
G1 X199.182 Y137.015 E.30019
G1 X194.898 Y143.508 E.2439
G1 X194.816 Y143.535 E.00271
G1 X191.939 Y143.535 E.09021
G1 X191.939 Y134.1 E.29583
G1 X191.862 Y133.815 E.00926
G1 X191.655 Y133.61 E.00913
G1 X191.373 Y133.535 E.00915
G1 X31.925 Y133.538 E4.99937
G1 X31.643 Y133.613 E.00915
G1 X31.437 Y133.818 E.00911
G1 X31.36 Y134.103 E.00926
G1 X31.36 Y143.538 E.29583
G1 X29.448 Y143.538 E.05995
G1 X28.401 Y143.511 E.03284
G1 X24.117 Y137.018 E.2439
G1 X24.117 Y127.444 E.30019
G1 X28.345 Y121.494 E.22886
G1 X28.156 Y121.109 F9000
;TYPE:External perimeter
G1 F1200
G1 X28.322 Y121.092 E.00523
G1 X28.36 Y121.035 E.00215
G1 X30.067 Y121.035 E.05352
G1 X30.067 Y127.848 E.21362
G1 X30.116 Y127.975 E.00427
G1 X30.255 Y128.037 E.00477
G1 X37.503 Y128.037 E.22726
G1 X37.629 Y127.989 E.00423
G1 X37.692 Y127.848 E.00484
G1 X37.7 Y121.009 E.21443
G1 X42.08 Y121.009 E.13733
G1 X42.08 Y127.846 E.21437
G1 X42.124 Y127.968 E.00407
G1 X42.268 Y128.035 E.00498
G1 X71.012 Y128.037 E.90125
G1 X71.138 Y127.989 E.00423
G1 X71.201 Y127.848 E.00484
G1 X71.201 Y121.009 E.21443
G1 X75.581 Y121.009 E.13733
G1 X75.581 Y127.848 E.21443
G1 X75.625 Y127.97 E.00407
G1 X75.769 Y128.037 E.00498
G1 X83.012 Y128.037 E.2271
G1 X83.138 Y127.989 E.00423
G1 X83.201 Y127.848 E.00484
G1 X83.201 Y121.009 E.21443
G1 X87.581 Y121.009 E.13733
G1 X87.581 Y127.848 E.21443
G1 X87.625 Y127.97 E.00407
G1 X87.769 Y128.037 E.00498
G1 X135.529 Y128.034 E1.49748
G1 X135.655 Y127.986 E.00423
G1 X135.718 Y127.845 E.00484
G1 X135.718 Y121.006 E.21443
G1 X140.098 Y121.006 E.13733
G1 X140.098 Y127.845 E.21443
G1 X140.142 Y127.967 E.00407
G1 X140.286 Y128.034 E.00498
G1 X147.529 Y128.034 E.2271
G1 X147.655 Y127.986 E.00423
G1 X147.718 Y127.845 E.00484
G1 X147.718 Y121.006 E.21443
G1 X152.098 Y121.006 E.13733
G1 X152.098 Y127.845 E.21443
G1 X152.142 Y127.967 E.00407
G1 X152.286 Y128.034 E.00498
G1 X181.03 Y128.032 E.90125
G1 X181.156 Y127.984 E.00423
G1 X181.219 Y127.844 E.00481
G1 X181.219 Y121.006 E.2144
G1 X185.599 Y121.006 E.13733
G1 X185.607 Y127.841 E.21431
G1 X185.651 Y127.967 E.00418
G1 X185.795 Y128.034 E.00498
G1 X193.043 Y128.034 E.22726
G1 X193.163 Y127.991 E.004
G1 X193.232 Y127.845 E.00506
G1 X193.232 Y121.032 E.21362
G1 X194.939 Y121.032 E.05352
G1 X194.977 Y121.089 E.00215
G1 X195.128 Y121.086 E.00474
G1 X199.559 Y127.321 E.23983
G1 X199.559 Y137.129 E.30752
G1 X195.128 Y143.844 E.25225
G1 X194.975 Y143.86 E.00482
G1 X194.941 Y143.912 E.00195
G1 X191.562 Y143.912 E.10595
G1 X191.562 Y134.1 E.30765
G1 X191.522 Y133.984 E.00385
G1 X191.373 Y133.912 E.00519
G1 X31.925 Y133.915 E4.99937
G1 X31.809 Y133.955 E.00385
G1 X31.737 Y134.103 E.00516
G1 X31.737 Y143.915 E.30765
G1 X28.358 Y143.915 E.10595
G1 X28.323 Y143.863 E.00197
G1 X28.181 Y143.862 E.00445
G1 X23.74 Y137.132 E.25282
G1 X23.74 Y127.324 E.30752
G1 X28.121 Y121.158 E.23716
G1 X28.299 Y121.195 F9000
G1 E-3.5 F3600
;WIPE_START
G1 F7200
G1 X28.322 Y121.092 E-.10049
G1 X28.36 Y121.035 E-.03254
G1 X30.067 Y121.035 E-.81083
G1 X30.067 Y122.206 E-.55614
;WIPE_END
G1 X196.472 Y126.931 F9000
G1 E5 F2400
;TYPE:Perimeter
G1 F1200
G1 X196.494 Y127.013 E.00266
G1 X196.468 Y127.5 E.01529
G1 X196.363 Y127.7 E.00708
G1 X196.212 Y127.83 E.00625
G1 X195.924 Y127.909 E.00936
G1 X194.989 Y127.906 E.02932
G1 X194.725 Y127.808 E.00883
G1 X194.549 Y127.61 E.00831
G1 X194.482 Y127.343 E.00863
G1 X194.482 Y126.985 E.01122
G1 X194.6 Y126.639 E.01146
G1 X194.841 Y126.459 E.00943
G1 X195.221 Y126.424 E.01197
G1 X195.942 Y126.441 E.02261
G1 X196.204 Y126.513 E.00852
G1 X196.42 Y126.726 E.00951
G1 X196.457 Y126.873 E.00475
G1 X196.117 Y127.009 F9000
;TYPE:External perimeter
G1 F1200
G1 X196.105 Y127.395 E.01211
G1 X196.02 Y127.506 E.00438
G1 X195.028 Y127.531 E.03111
G1 X194.94 Y127.498 E.00295
G1 X194.859 Y127.343 E.00548
G1 X194.859 Y126.985 E.01122
G1 X194.898 Y126.87 E.00381
G1 X195.052 Y126.797 E.00534
G1 X195.933 Y126.818 E.02763
G1 X196.082 Y126.897 E.00529
G1 X196.099 Y126.951 E.00178
G1 X196.488 Y127.118 F9000
G1 E-3.5 F3600
;WIPE_START
G1 F7200
G1 X196.105 Y127.395 E-.21092
G1 X196.02 Y127.506 E-.06641
G1 X195.028 Y127.531 E-.47135
G1 X194.94 Y127.498 E-.04464
G1 X194.859 Y127.343 E-.08307
G1 X194.859 Y126.985 E-.17005
G1 X194.898 Y126.87 E-.05768
G1 X195.052 Y126.797 E-.08095
G1 X195.715 Y126.813 E-.31493
;WIPE_END
G1 X196.75 Y137.067 F9000
G1 E5 F2400
;TYPE:Perimeter
G1 F1200
G1 X196.768 Y137.43 E.0114
G1 X196.674 Y137.748 E.0104
G1 X196.476 Y137.932 E.00847
G1 X196.217 Y138.002 E.00841
G1 X195.062 Y138.032 E.03623
G1 X194.894 Y138.011 E.00531
G1 X194.712 Y137.921 E.00637
G1 X194.55 Y137.735 E.00773
G1 X194.482 Y137.466 E.0087
G1 X194.482 Y137.1 E.01148
G1 X194.527 Y136.879 E.00707
G1 X194.643 Y136.704 E.00658
G1 X194.934 Y136.546 E.01038
G1 X196.198 Y136.535 E.03963
G1 X196.49 Y136.616 E.0095
G1 X196.642 Y136.75 E.00635
G1 X196.745 Y136.957 E.00725
G1 X196.748 Y137.007 E.00157
G1 X196.387 Y137.098 F9000
;TYPE:External perimeter
G1 F1200
G1 X196.366 Y137.531 E.01359
G1 X196.294 Y137.602 E.00317
G1 X196.207 Y137.625 E.00282
G1 X195.052 Y137.655 E.03623
G1 X194.935 Y137.618 E.00385
G1 X194.859 Y137.466 E.00533
G1 X194.874 Y137.026 E.0138
G1 X194.962 Y136.932 E.00404
G1 X195.01 Y136.916 E.00159
G1 X196.198 Y136.912 E.03725
G1 X196.346 Y136.984 E.00516
G1 X196.367 Y137.041 E.0019
G1 X196.77 Y137.213 F9000
G1 E-3.5 F3600
;WIPE_START
G1 F7200
G1 X196.366 Y137.531 E-.23275
G1 X196.294 Y137.602 E-.04803
G1 X196.207 Y137.625 E-.04274
G1 X195.052 Y137.655 E-.54881
G1 X194.935 Y137.618 E-.05829
G1 X194.859 Y137.466 E-.08072
G1 X194.874 Y137.026 E-.20912
G1 X194.962 Y136.932 E-.06116
G1 X195.01 Y136.916 E-.02403
G1 X195.419 Y136.915 E-.19435
;WIPE_END
G1 X26.825 Y127.381 F9000
G1 E5 F2400
;TYPE:Perimeter
G1 F1200
G1 X26.805 Y127.016 E.01146
G1 X26.91 Y126.682 E.01098
G1 X27.095 Y126.516 E.00779
G1 X27.357 Y126.444 E.00852
G1 X28.238 Y126.423 E.02763
G1 X28.457 Y126.462 E.00697
G1 X28.699 Y126.642 E.00946
G1 X28.817 Y126.988 E.01146
G1 X28.808 Y127.444 E.0143
G1 X28.75 Y127.613 E.0056
G1 X28.574 Y127.811 E.00831
G1 X28.31 Y127.909 E.00883
G1 X27.375 Y127.912 E.02932
G1 X27.087 Y127.833 E.00936
G1 X26.936 Y127.703 E.00625
G1 X26.831 Y127.503 E.00708
G1 X26.828 Y127.441 E.00195
G1 X27.186 Y127.348 F9000
;TYPE:External perimeter
G1 F1200
G1 X27.207 Y126.916 E.01356
G1 X27.279 Y126.845 E.00317
G1 X28.087 Y126.804 E.02537
G1 X28.32 Y126.813 E.00731
G1 X28.401 Y126.873 E.00316
G1 X28.44 Y126.988 E.00381
G1 X28.418 Y127.435 E.01403
G1 X28.288 Y127.531 E.00507
G1 X27.375 Y127.535 E.02863
G1 X27.229 Y127.465 E.00508
G1 X27.207 Y127.405 E.002
G1 X26.803 Y127.233 F9000
G1 E-3.5 F3600
;WIPE_START
G1 F7200
G1 X27.207 Y126.916 E-.23228
G1 X27.279 Y126.845 E-.04803
G1 X28.087 Y126.804 E-.38429
G1 X28.32 Y126.813 E-.11076
G1 X28.401 Y126.873 E-.04788
G1 X28.44 Y126.988 E-.05768
G1 X28.418 Y127.435 E-.21258
G1 X28.288 Y127.531 E-.07676
G1 X27.594 Y127.534 E-.32974
;WIPE_END
G1 X26.576 Y136.915 F9000
G1 E5 F2400
;TYPE:Perimeter
G1 F1200
G1 X26.656 Y136.753 E.00566
G1 X26.808 Y136.619 E.00635
G1 X27.101 Y136.538 E.00953
G1 X28.251 Y136.538 E.03606
G1 X28.508 Y136.599 E.00828
G1 X28.655 Y136.707 E.00572
G1 X28.772 Y136.882 E.0066
G1 X28.817 Y137.103 E.00707
G1 X28.808 Y137.567 E.01455
G1 X28.749 Y137.738 E.00567
G1 X28.587 Y137.924 E.00773
G1 X28.405 Y138.014 E.00637
G1 X28.237 Y138.035 E.00531
G1 X27.082 Y138.005 E.03623
G1 X26.822 Y137.935 E.00844
G1 X26.606 Y137.722 E.00951
G1 X26.531 Y137.433 E.00936
G1 X26.553 Y136.969 E.01456
G1 X26.908 Y137.437 F9000
;TYPE:External perimeter
G1 F1200
G1 X26.918 Y137.056 E.01195
G1 X27.003 Y136.942 E.00446
G1 X27.837 Y136.915 E.02616
G1 X28.337 Y136.935 E.01569
G1 X28.425 Y137.029 E.00404
G1 X28.437 Y137.502 E.01484
G1 X28.363 Y137.621 E.00439
G1 X28.247 Y137.658 E.00382
G1 X27.092 Y137.628 E.03623
G1 X26.939 Y137.544 E.00547
G1 X26.925 Y137.495 E.0016
G1 X26.541 Y137.33 F9000
G1 E-3.5 F3600
;WIPE_START
G1 F7200
G1 X26.918 Y137.056 E-.20855
G1 X27.003 Y136.942 E-.06755
G1 X27.837 Y136.915 E-.39636
G1 X28.337 Y136.935 E-.23769
G1 X28.425 Y137.029 E-.06116
G1 X28.437 Y137.502 E-.22475
G1 X28.363 Y137.621 E-.06656
G1 X28.247 Y137.658 E-.05784
G1 X27.869 Y137.648 E-.17954
;WIPE_END
G1 X196.754 Y124.22 F9000
G1 E5 F2400
;TYPE:Solid infill
;WIDTH:0.420119
G1 F1200
G1 X194.226 Y121.692 E.11213
G1 X193.892 Y121.692 E.01048
G1 X193.892 Y121.891 E.00624
G1 X197.345 Y125.344 E.15316
G1 X198.655 Y127.188 E.07094
G1 X193.892 Y122.425 E.21127
G1 X193.892 Y122.958 E.01672
G1 X198.899 Y127.965 E.22209
G1 X198.899 Y128.499 E.01675
G1 X193.892 Y123.492 E.22209
G1 X193.892 Y124.025 E.01672
G1 X196.05 Y126.183 E.09572
G1 X196.338 Y126.262 E.00937
G1 X196.526 Y126.403 E.00737
G1 X196.697 Y126.643 E.00924
G1 X196.75 Y126.883 E.00771
G1 X198.899 Y129.032 E.09532
G1 X198.899 Y129.566 E.01675
G1 X196.762 Y127.429 E.09479
G1 X196.74 Y127.581 E.00482
G1 X196.617 Y127.817 E.00835
G1 X198.899 Y130.099 E.10122
G1 X198.899 Y130.632 E.01672
G1 X196.345 Y128.079 E.11326
G1 X196.127 Y128.168 E.00739
G1 X195.925 Y128.192 E.00638
G1 X198.899 Y131.166 E.13191
G1 X198.899 Y131.699 E.01672
G1 X195.219 Y128.019 E.16323
G1 X195.654 Y126.321 F9000
G1 F1200
G1 X193.892 Y124.558 E.07818
G1 X193.892 Y125.092 E.01675
G1 X194.955 Y126.155 E.04715
G1 X194.734 Y126.194 E.00704
G1 X194.578 Y126.311 E.00612
G1 X193.892 Y125.625 E.03043
G1 X193.892 Y126.159 E.01675
G1 X194.327 Y126.594 E.01929
G1 X194.199 Y127 E.01335
G1 X193.892 Y126.692 E.01364
G1 X193.892 Y127.226 E.01675
G1 X198.899 Y132.233 E.22209
G1 X198.899 Y132.766 E.01672
G1 X193.892 Y127.759 E.22209
G1 X193.892 Y127.856 E.00304
G1 X193.807 Y128.208 E.01136
G1 X198.899 Y133.3 E.22586
G1 X198.899 Y133.833 E.01672
G1 X193.566 Y128.5 E.23655
G1 X193.444 Y128.595 E.00485
G1 X193.206 Y128.673 E.00786
G1 X198.899 Y134.367 E.25254
G1 X198.899 Y134.9 E.01672
G1 X192.685 Y128.686 E.27563
G1 X192.152 Y128.687 E.01672
G1 X198.899 Y135.433 E.29925
G1 X198.899 Y135.967 E.01675
G1 X191.619 Y128.687 E.32291
G1 X191.087 Y128.688 E.01669
G1 X198.899 Y136.5 E.34651
G1 X198.899 Y136.931 E.01352
G1 X198.858 Y136.993 E.00233
G1 X190.554 Y128.688 E.36835
G1 X190.021 Y128.689 E.01672
G1 X198.646 Y137.314 E.38257
G1 X198.434 Y137.636 E.01209
G1 X189.488 Y128.69 E.39681
G1 X188.955 Y128.69 E.01672
G1 X198.222 Y137.957 E.41104
G1 X198.01 Y138.278 E.01207
G1 X197.049 Y137.318 E.0426
G1 X197.051 Y137.436 E.0037
G1 X196.978 Y137.78 E.01103
G1 X197.798 Y138.6 E.03637
G1 X197.586 Y138.921 E.01207
G1 X196.744 Y138.079 E.03735
G1 X196.611 Y138.183 E.0053
G1 X196.377 Y138.246 E.0076
G1 X197.374 Y139.242 E.0442
G1 X197.161 Y139.564 E.01211
G1 X195.891 Y138.294 E.05633
G1 X195.371 Y138.307 E.01631
G1 X197.072 Y140.008 E.07545
G1 E-3.5 F3600
;WIPE_START
G1 F7200
G1 X195.371 Y138.307 E-1.14265
G1 X195.891 Y138.294 E-.24708
G1 X196.055 Y138.458 E-.11027
;WIPE_END
G1 X196.153 Y136.422 F9000
G1 E5 F2400
G1 F1200
G1 X188.422 Y128.691 E.34291
G1 X187.889 Y128.691 E.01672
G1 X195.45 Y136.252 E.33537
G1 X194.928 Y136.263 E.01638
G1 X187.357 Y128.692 E.33582
G1 X186.824 Y128.693 E.01672
G1 X191.384 Y133.252 E.20224
G1 X191.596 Y133.281 E.00671
G1 X191.794 Y133.363 E.00672
G1 X191.903 Y133.437 E.00413
G1 X192.105 Y133.669 E.00965
G1 X192.183 Y133.845 E.00604
G1 X192.217 Y134.086 E.00763
G1 X194.554 Y136.423 E.10366
G1 X194.44 Y136.506 E.00442
G1 X194.305 Y136.707 E.00759
G1 X192.217 Y134.62 E.09259
G1 X192.218 Y135.153 E.01672
G1 X194.373 Y137.309 E.09561
G1 E-3.5 F3600
;WIPE_START
G1 F7200
G1 X192.218 Y135.153 E-1.44796
G1 X192.218 Y135.043 E-.05204
;WIPE_END
G1 X192.048 Y135.517 F9000
G1 E5 F2400
G1 F1200
G1 X196.737 Y140.207 E.20801
G1 X196.525 Y140.528 E.01207
G1 X192.218 Y136.221 E.19104
G1 X192.218 Y136.755 E.01675
