; generated by PrusaSlicer 2.6.0+linux-x64-GTK3 on 2023-08-24 at 20:48:09 UTC


;
;

;
;
; 

; external perimeters extrusion width = 0.45mm
; perimeters extrusion width = 0.45mm
; infill extrusion width = 0.45mm
; solid infill extrusion width = 0.45mm
; top infill extrusion width = 0.40mm
; support material extrusion width = 0.38mm
; first layer extrusion width = 0.42mm

;TYPE:Custom
M413 S0 ; disable Power Loss Recovery
G90 ; use absolute coordinates
M83 ; extruder relative mode
M104 S120 ; set temporary nozzle temp to prevent oozing during homing and auto bed leveling
M140 S60 ; set final bed temp
G4 S10 ; allow partial nozzle warmup
G28 ; home all axis
G1 Z50 F240
G1 X2 Y10 F3000
M104 S210 ; set final nozzle temp
M190 S60 ; wait for bed temp to stabilize
M109 S210 ; wait for nozzle temp to stabilize
G1 Z0.28 F240
G92 E0
G1 Y140 E10 F1500 ; prime the nozzle
G1 X2.3 F5000
G92 E0
G1 Y10 E10 F1200 ; prime the nozzle
G92 E0
G21 ; set units to millimeters
G90 ; use absolute coordinates
M83 ; use relative distances for extrusion
; Filament gcode
M107
;LAYER_CHANGE
;Z:0.2
;HEIGHT:0.2
;BEFORE_LAYER_CHANGE
G92 E0
;0.2


G1 E-5 F3600
G1 Z.2 F9000
;AFTER_LAYER_CHANGE
;0.2
G1 X68.275 Y106.316
G1 E5 F2400
;TYPE:Skirt/Brim
;WIDTH:0.42
G1 F1200
G1 X69.215 Y106.123 E.03009
G1 X143.943 Y106.123 E2.34304
G1 X145.25 Y106.514 E.04277
G1 X146.126 Y107.56 E.04278
G1 X146.32 Y108.5 E.03009
G1 X146.32 Y122.02 E.42391
G1 X145.928 Y123.327 E.04278
G1 X144.883 Y124.203 E.04275
G1 X143.944 Y124.397 E.03006
G1 X69.21 Y124.397 E2.34323
G1 X67.904 Y124.003 E.04277
G1 X67.03 Y122.955 E.04279
G1 X66.838 Y122.02 E.02993
G1 X66.838 Y108.5 E.42391
G1 X67.229 Y107.193 E.04277
G1 X68.229 Y106.355 E.04091
G1 E-3.5 F3600
;WIPE_START
G1 F7200
G1 X69.215 Y106.123 E-.48114
G1 X71.36 Y106.123 E-1.01886
;WIPE_END
G1 X69.902 Y109.187 F9000
G1 E5 F2400
;TYPE:Perimeter
;WIDTH:0.419999
G1 F1200
G1 X73.925 Y109.187 E.12614
G1 X73.925 Y116.143 E.2181
G1 X73.955 Y116.325 E.00578
G1 X74.147 Y116.592 E.01031
G1 X74.304 Y116.677 E.0056
G1 X74.49 Y116.709 E.00592
G1 X79.756 Y116.709 E.16511
G1 X79.823 Y116.705 E.0021
G1 X80.063 Y116.619 E.00799
G1 X80.261 Y116.398 E.0093
G1 X80.322 Y116.143 E.00822
G1 X80.322 Y109.207 E.21747
G1 X83.948 Y109.207 E.11369
G1 X83.948 Y116.143 E.21747
G1 X83.965 Y116.281 E.00436
G1 X84.115 Y116.545 E.00952
G1 X84.32 Y116.675 E.00761
G1 X84.513 Y116.709 E.00614
G1 X129.736 Y116.709 E1.41793
G1 X129.889 Y116.688 E.00484
G1 X130.136 Y116.544 E.00896
G1 X130.242 Y116.397 E.00568
G1 X130.302 Y116.143 E.00818
G1 X130.302 Y109.207 E.21747
G1 X133.926 Y109.207 E.11363
G1 X133.926 Y116.143 E.21747
G1 X133.943 Y116.281 E.00436
G1 X134.04 Y116.483 E.00703
G1 X134.202 Y116.629 E.00684
G1 X134.491 Y116.709 E.0094
G1 X139.739 Y116.709 E.16455
G1 X139.837 Y116.7 E.00309
G1 X140.112 Y116.568 E.00956
G1 X140.25 Y116.387 E.00714
G1 X140.305 Y116.143 E.00784
G1 X140.305 Y109.207 E.21747
G1 X141.216 Y109.187 E.02857
G1 X143.256 Y109.187 E.06396
G1 X143.256 Y121.333 E.38083
G1 X84.513 Y121.333 E1.84184
G1 X84.433 Y121.353 E.00259
G1 X80.776 Y121.353 E.11466
G1 X79.756 Y121.333 E.03199
G1 X69.902 Y121.333 E.30896
G1 X69.902 Y109.247 E.37895
G1 E-3.5 F3600
;WIPE_START
G1 F7200
G1 X73.06 Y109.2 E-1.5
;WIPE_END
G1 X74.302 Y116.143 F9000
G1 E5 F2400
;TYPE:External perimeter
G1 F1200
G1 X74.339 Y116.255 E.0037
G1 X74.49 Y116.332 E.00531
G1 X79.756 Y116.332 E.16511
G1 X79.889 Y116.277 E.00451
G1 X79.945 Y116.143 E.00455
G1 X79.945 Y108.83 E.22929
G1 X84.325 Y108.83 E.13733
G1 X84.325 Y116.143 E.22929
G1 X84.381 Y116.277 E.00455
G1 X84.513 Y116.332 E.00448
G1 X129.736 Y116.332 E1.41793
G1 X129.869 Y116.277 E.00451
G1 X129.925 Y116.143 E.00455
G1 X129.925 Y108.83 E.22929
G1 X134.303 Y108.83 E.13727
G1 X134.303 Y116.143 E.22929
G1 X134.341 Y116.256 E.00374
G1 X134.491 Y116.332 E.00527
G1 X139.739 Y116.332 E.16455
G1 X139.864 Y116.285 E.00419
G1 X139.928 Y116.143 E.00488
G1 X139.928 Y108.83 E.22929
G1 X141.116 Y108.83 E.03725
G1 X141.161 Y108.81 E.00154
G1 X143.633 Y108.81 E.07751
G1 X143.633 Y121.71 E.40447
G1 X84.513 Y121.71 E1.85366
G1 X84.475 Y121.73 E.00135
G1 X80.776 Y121.73 E.11598
G1 X79.756 Y121.71 E.03199
G1 X69.525 Y121.71 E.32079
G1 X69.525 Y108.81 E.40447
G1 X74.302 Y108.81 E.14978
G1 X74.302 Y116.083 E.22804
G1 X74.231 Y116.238 F9000
G1 E-3.5 F3600
;WIPE_START
G1 F7200
G1 X74.339 Y116.255 E-.08357
G1 X74.49 Y116.332 E-.08051
G1 X77.302 Y116.332 E-1.33592
;WIPE_END
G1 X143.143 Y110.065 F9000
G1 E5 F2400
;TYPE:Solid infill
;WIDTH:0.421478
G1 F1200
G1 X142.547 Y109.469 E.02653
G1 X142.012 Y109.469 E.01684
G1 X142.973 Y110.431 E.0428
G1 X142.973 Y110.966 E.01684
G1 X141.476 Y109.469 E.06664
G1 X140.961 Y109.489 E.01622
G1 X142.973 Y111.502 E.08959
G1 X142.973 Y112.037 E.01684
G1 X140.588 Y109.652 E.10617
G1 X140.588 Y110.187 E.01684
G1 X142.973 Y112.572 E.10617
G1 X142.973 Y113.108 E.01687
G1 X140.588 Y110.722 E.10619
G1 X140.588 Y111.258 E.01687
G1 X142.973 Y113.643 E.10617
G1 X142.973 Y114.178 E.01684
G1 X140.588 Y111.793 E.10617
G1 X140.588 Y112.329 E.01687
G1 X142.973 Y114.714 E.10617
G1 X142.973 Y115.249 E.01684
G1 X140.588 Y112.864 E.10617
G1 X140.588 Y113.399 E.01684
G1 X142.973 Y115.785 E.10619
G1 X142.973 Y116.32 E.01684
G1 X140.588 Y113.935 E.10617
G1 X140.588 Y114.47 E.01684
G1 X142.973 Y116.855 E.10617
G1 X142.973 Y117.391 E.01687
G1 X140.588 Y115.005 E.10619
G1 X140.588 Y115.541 E.01687
G1 X142.973 Y117.926 E.10617
G1 X142.973 Y118.461 E.01684
G1 X140.588 Y116.076 E.10617
G1 X140.575 Y116.292 E.00681
G1 X140.498 Y116.521 E.0076
G1 X142.973 Y118.997 E.1102
G1 X142.973 Y119.532 E.01684
G1 X140.252 Y116.811 E.12113
G1 X140.055 Y116.931 E.00726
G1 X139.885 Y116.979 E.00556
G1 X142.973 Y120.067 E.13746
G1 X142.973 Y120.603 E.01687
G1 X139.351 Y116.981 E.16124
G1 X138.817 Y116.982 E.01681
G1 X142.885 Y121.05 E.18109
G1 X142.349 Y121.05 E.01687
G1 X138.283 Y116.983 E.18102
G1 X137.749 Y116.985 E.01681
G1 X141.814 Y121.05 E.18096
G1 X141.278 Y121.05 E.01687
G1 X137.215 Y116.986 E.18089
G1 X136.68 Y116.987 E.01684
G1 X140.743 Y121.05 E.18087
G1 X140.208 Y121.05 E.01684
G1 X136.146 Y116.988 E.18082
G1 X135.612 Y116.989 E.01681
G1 X139.672 Y121.05 E.18076
G1 X139.137 Y121.05 E.01684
G1 X134.908 Y116.821 E.18826
G1 E-3.5 F3600
;WIPE_START
G1 F7200
G1 X137.141 Y119.054 E-1.5
;WIPE_END
G1 X133.813 Y109.836 F9000
G1 E5 F2400
G1 F1200
G1 X133.466 Y109.489 E.01545
G1 X132.93 Y109.489 E.01687
G1 X133.643 Y110.202 E.03174
G1 X133.643 Y110.737 E.01684
G1 X132.395 Y109.489 E.05556
G1 X131.86 Y109.489 E.01684
G1 X133.643 Y111.273 E.07939
G1 X133.643 Y111.808 E.01684
G1 X131.324 Y109.489 E.10323
G1 X130.789 Y109.489 E.01684
G1 X133.643 Y112.343 E.12705
G1 X133.643 Y112.879 E.01687
G1 X130.585 Y109.82 E.13615
G1 X130.584 Y110.356 E.01687
G1 X133.643 Y113.414 E.13615
G1 X133.643 Y113.95 E.01687
G1 X130.584 Y110.891 E.13617
G1 X130.584 Y111.426 E.01684
G1 X133.643 Y114.485 E.13617
G1 X133.643 Y115.02 E.01684
G1 X130.584 Y111.961 E.13617
G1 X130.583 Y112.496 E.01684
G1 X133.813 Y115.725 E.14376
G1 E-3.5 F3600
;WIPE_START
G1 F7200
G1 X131.58 Y113.492 E-1.5
;WIPE_END
G1 X130.414 Y112.862 F9000
G1 E5 F2400
G1 F1200
G1 X133.643 Y116.091 E.14374
G1 X133.668 Y116.349 E.00816
G1 X133.732 Y116.523 E.00584
G1 X133.894 Y116.746 E.00868
G1 X134.057 Y116.873 E.0065
G1 X134.262 Y116.961 E.00702
G1 X134.543 Y116.991 E.0089
G1 X138.602 Y121.05 E.18069
G1 X138.066 Y121.05 E.01687
G1 X130.583 Y113.566 E.33313
G1 X130.583 Y114.102 E.01687
G1 X137.531 Y121.05 E.30929
G1 X136.996 Y121.05 E.01684
G1 X130.583 Y114.637 E.28548
G1 X130.582 Y115.172 E.01684
G1 X136.46 Y121.05 E.26166
G1 X135.925 Y121.05 E.01684
G1 X130.582 Y115.707 E.23785
G1 X130.578 Y116.238 E.01671
G1 X135.39 Y121.05 E.21421
G1 X134.854 Y121.05 E.01687
G1 X130.426 Y116.621 E.19714
G1 X130.337 Y116.744 E.00478
G1 X130.15 Y116.881 E.0073
G1 X134.319 Y121.05 E.18559
G1 X133.783 Y121.05 E.01687
G1 X129.714 Y116.98 E.18116
G1 X129.179 Y116.98 E.01684
G1 X133.248 Y121.05 E.18116
G1 X132.713 Y121.05 E.01684
G1 X128.643 Y116.98 E.18118
G1 X128.108 Y116.98 E.01684
G1 X132.177 Y121.05 E.18116
G1 X131.642 Y121.05 E.01684
G1 X127.573 Y116.98 E.18116
G1 X127.037 Y116.981 E.01687
G1 X131.107 Y121.05 E.18116
G1 X130.571 Y121.05 E.01687
G1 X126.502 Y116.981 E.18113
G1 X125.967 Y116.981 E.01684
G1 X130.036 Y121.05 E.18113
G1 X129.501 Y121.05 E.01684
G1 X125.432 Y116.981 E.18113
G1 X124.896 Y116.981 E.01687
G1 X128.965 Y121.05 E.18113
G1 X128.43 Y121.05 E.01684
G1 X124.361 Y116.981 E.18113
G1 X123.826 Y116.981 E.01684
G1 X127.894 Y121.05 E.18111
G1 X127.359 Y121.05 E.01684
G1 X123.29 Y116.981 E.18113
G1 X122.755 Y116.981 E.01684
G1 X126.824 Y121.05 E.18113
G1 X126.288 Y121.05 E.01687
G1 X122.22 Y116.981 E.18111
G1 X121.685 Y116.981 E.01684
G1 X125.753 Y121.05 E.18111
G1 X125.218 Y121.05 E.01684
G1 X121.149 Y116.981 E.18113
G1 X120.614 Y116.981 E.01684
G1 X124.682 Y121.05 E.18111
G1 X124.147 Y121.05 E.01684
G1 X120.079 Y116.981 E.18111
G1 X119.543 Y116.982 E.01687
G1 X123.612 Y121.05 E.18111
G1 X123.076 Y121.05 E.01687
G1 X119.008 Y116.982 E.18109
G1 X118.473 Y116.982 E.01684
G1 X122.541 Y121.05 E.18109
G1 X122.005 Y121.05 E.01687
G1 X117.938 Y116.982 E.18107
G1 X117.402 Y116.982 E.01687
G1 X121.47 Y121.05 E.18109
G1 X120.935 Y121.05 E.01684
G1 X116.867 Y116.982 E.18109
G1 X116.332 Y116.982 E.01684
G1 X120.399 Y121.05 E.18107
G1 X119.864 Y121.05 E.01684
G1 X115.796 Y116.982 E.18109
G1 X115.261 Y116.982 E.01684
G1 X119.329 Y121.05 E.18109
G1 X118.793 Y121.05 E.01687
G1 X114.726 Y116.982 E.18107
G1 X114.19 Y116.982 E.01687
G1 X118.258 Y121.05 E.18109
G1 X117.723 Y121.05 E.01684
G1 X113.655 Y116.982 E.18109
G1 X113.12 Y116.982 E.01684
G1 X117.187 Y121.05 E.18107
G1 X116.652 Y121.05 E.01684
G1 X112.585 Y116.982 E.18107
G1 X112.049 Y116.983 E.01687
G1 X116.116 Y121.05 E.18104
G1 X115.581 Y121.05 E.01684
G1 X111.514 Y116.983 E.18104
G1 X110.979 Y116.983 E.01684
G1 X115.046 Y121.05 E.18104
G1 X114.51 Y121.05 E.01687
G1 X110.443 Y116.983 E.18104
G1 X109.908 Y116.983 E.01684
G1 X113.975 Y121.05 E.18104
G1 X113.44 Y121.05 E.01684
G1 X109.373 Y116.983 E.18104
G1 X108.838 Y116.983 E.01684
G1 X112.904 Y121.05 E.18102
G1 X112.369 Y121.05 E.01684
G1 X108.302 Y116.983 E.18104
G1 X107.767 Y116.983 E.01684
G1 X111.834 Y121.05 E.18104
G1 X111.298 Y121.05 E.01687
G1 X107.232 Y116.983 E.18102
G1 X106.696 Y116.983 E.01687
G1 X110.763 Y121.05 E.18104
G1 X110.228 Y121.05 E.01684
G1 X106.161 Y116.983 E.18104
G1 X105.626 Y116.983 E.01684
G1 X109.692 Y121.05 E.18102
G1 X109.157 Y121.05 E.01684
G1 X105.091 Y116.983 E.18102
G1 X104.555 Y116.984 E.01687
G1 X108.621 Y121.05 E.181
G1 X108.086 Y121.05 E.01684
G1 X104.02 Y116.984 E.181
G1 X103.485 Y116.984 E.01684
G1 X107.551 Y121.05 E.181
G1 X107.015 Y121.05 E.01687
G1 X102.949 Y116.984 E.181
G1 X102.414 Y116.984 E.01684
G1 X106.48 Y121.05 E.181
G1 X105.945 Y121.05 E.01684
G1 X101.879 Y116.984 E.181
G1 X101.344 Y116.984 E.01684
G1 X105.409 Y121.05 E.18098
G1 X104.874 Y121.05 E.01684
G1 X100.808 Y116.984 E.181
G1 X100.273 Y116.984 E.01684
G1 X104.339 Y121.05 E.181
G1 X103.803 Y121.05 E.01687
G1 X99.738 Y116.984 E.18098
G1 X99.202 Y116.984 E.01687
G1 X103.268 Y121.05 E.181
G1 X102.732 Y121.05 E.01687
G1 X98.667 Y116.984 E.18098
G1 X98.132 Y116.984 E.01684
G1 X102.197 Y121.05 E.18098
G1 X101.662 Y121.05 E.01684
G1 X97.597 Y116.985 E.18096
G1 X97.061 Y116.985 E.01687
G1 X101.126 Y121.05 E.18096
G1 X100.591 Y121.05 E.01684
G1 X96.526 Y116.985 E.18096
G1 X95.991 Y116.985 E.01684
G1 X100.056 Y121.05 E.18096
G1 X99.52 Y121.05 E.01687
G1 X95.455 Y116.985 E.18096
G1 X94.92 Y116.985 E.01684
G1 X98.985 Y121.05 E.18096
G1 X98.45 Y121.05 E.01684
G1 X94.385 Y116.985 E.18096
G1 X93.849 Y116.985 E.01687
G1 X97.914 Y121.05 E.18096
G1 X97.379 Y121.05 E.01684
G1 X93.314 Y116.985 E.18096
G1 X92.779 Y116.985 E.01684
G1 X96.843 Y121.05 E.18093
G1 X96.308 Y121.05 E.01684
G1 X92.244 Y116.985 E.18093
G1 X91.708 Y116.985 E.01687
G1 X95.773 Y121.05 E.18096
G1 X95.237 Y121.05 E.01687
G1 X91.173 Y116.985 E.18093
G1 X90.638 Y116.985 E.01684
G1 X94.702 Y121.05 E.18093
G1 X94.167 Y121.05 E.01684
G1 X90.102 Y116.986 E.18093
G1 X89.567 Y116.986 E.01684
G1 X93.631 Y121.05 E.18091
G1 X93.096 Y121.05 E.01684
G1 X89.032 Y116.986 E.18091
G1 X88.497 Y116.986 E.01684
G1 X92.561 Y121.05 E.18091
G1 X92.025 Y121.05 E.01687
G1 X87.961 Y116.986 E.18091
G1 X87.426 Y116.986 E.01684
G1 X91.49 Y121.05 E.18091
G1 X90.954 Y121.05 E.01687
G1 X86.891 Y116.986 E.18089
G1 X86.355 Y116.986 E.01687
G1 X90.419 Y121.05 E.18091
G1 X89.884 Y121.05 E.01684
G1 X85.82 Y116.986 E.18091
G1 X85.285 Y116.986 E.01684
G1 X89.348 Y121.05 E.18089
G1 X88.813 Y121.05 E.01684
G1 X84.58 Y116.817 E.18843
G1 E-3.5 F3600
;WIPE_START
G1 F7200
G1 X86.813 Y119.05 E-1.5
;WIPE_END
G1 X83.835 Y110.183 F9000
G1 E5 F2400
G1 F1200
G1 X83.142 Y109.489 E.03087
G1 X82.606 Y109.489 E.01687
G1 X83.665 Y110.549 E.04716
G1 X83.666 Y111.084 E.01684
G1 X82.071 Y109.489 E.071
G1 X81.536 Y109.489 E.01684
G1 X83.666 Y111.62 E.09484
G1 X83.666 Y112.155 E.01684
G1 X81 Y109.489 E.11868
G1 X80.605 Y109.489 E.01243
G1 X80.605 Y109.629 E.00441
G1 X83.666 Y112.691 E.13628
G1 X83.667 Y113.226 E.01684
G1 X80.604 Y110.164 E.13633
G1 X80.604 Y110.699 E.01684
G1 X83.667 Y113.762 E.13635
G1 X83.667 Y114.298 E.01687
G1 X80.604 Y111.235 E.13635
G1 X80.604 Y111.77 E.01684
G1 X83.667 Y114.833 E.13635
G1 X83.667 Y115.369 E.01687
G1 X80.604 Y112.305 E.13637
G1 X80.603 Y112.84 E.01684
G1 X83.837 Y116.074 E.14396
G1 E-3.5 F3600
;WIPE_START
G1 F7200
G1 X81.604 Y113.841 E-1.5
;WIPE_END
G1 X80.433 Y113.206 F9000
G1 E5 F2400
G1 F1200
G1 X88.278 Y121.05 E.3492
G1 X87.742 Y121.05 E.01687
G1 X80.603 Y113.91 E.31782
G1 X80.603 Y114.445 E.01684
G1 X87.207 Y121.05 E.294
G1 X86.672 Y121.05 E.01684
G1 X80.602 Y114.981 E.27019
G1 X80.602 Y115.516 E.01684
G1 X86.136 Y121.05 E.24635
G1 X85.601 Y121.05 E.01684
G1 X80.602 Y116.051 E.22253
G1 X80.579 Y116.352 E.0095
G1 X80.522 Y116.506 E.00517
G1 X85.065 Y121.05 E.20226
G1 X84.53 Y121.05 E.01684
G1 X80.283 Y116.803 E.18906
G1 X80.216 Y116.857 E.00271
G1 X80.044 Y116.942 E.00604
G1 X79.911 Y116.966 E.00425
G1 X84.015 Y121.07 E.18269
G1 X83.479 Y121.07 E.01687
G1 X79.401 Y116.991 E.18156
G1 X78.866 Y116.991 E.01684
G1 X82.944 Y121.07 E.18156
G1 X82.409 Y121.07 E.01684
G1 X78.33 Y116.991 E.18158
G1 X77.795 Y116.991 E.01684
G1 X81.873 Y121.07 E.18156
G1 X81.338 Y121.07 E.01684
G1 X77.26 Y116.991 E.18156
G1 X76.724 Y116.991 E.01687
G1 X80.803 Y121.07 E.18158
G1 X80.267 Y121.07 E.01687
G1 X76.189 Y116.991 E.18156
G1 X75.654 Y116.991 E.01684
G1 X79.712 Y121.05 E.18067
G1 X79.177 Y121.05 E.01684
G1 X74.949 Y116.822 E.18821
G1 E-3.5 F3600
;WIPE_START
G1 F7200
G1 X77.182 Y119.055 E-1.5
;WIPE_END
G1 X73.812 Y109.796 F9000
G1 E5 F2400
G1 F1200
G1 X73.485 Y109.469 E.01456
G1 X72.95 Y109.469 E.01684
G1 X73.642 Y110.162 E.03083
G1 X73.642 Y110.697 E.01684
G1 X72.415 Y109.469 E.05464
G1 X71.879 Y109.469 E.01687
G1 X73.642 Y111.232 E.07848
G1 X73.642 Y111.768 E.01687
G1 X71.344 Y109.469 E.10232
G1 X70.808 Y109.469 E.01687
G1 X73.642 Y112.303 E.12616
G1 X73.642 Y112.838 E.01684
G1 X70.273 Y109.469 E.14997
G1 X70.185 Y109.469 E.00277
G1 X70.185 Y109.917 E.0141
G1 X73.642 Y113.374 E.15389
G1 X73.642 Y113.909 E.01684
G1 X70.185 Y110.452 E.15389
G1 X70.185 Y110.987 E.01684
G1 X73.642 Y114.444 E.15389
G1 X73.642 Y114.98 E.01687
G1 X70.185 Y111.523 E.15389
G1 X70.185 Y112.058 E.01684
G1 X73.812 Y115.685 E.16146
G1 E-3.5 F3600
;WIPE_START
G1 F7200
G1 X71.579 Y113.452 E-1.5
;WIPE_END
G1 X70.015 Y112.424 F9000
G1 E5 F2400
G1 F1200
G1 X73.642 Y116.051 E.16146
G1 X73.686 Y116.415 E.01154
G1 X73.807 Y116.648 E.00826
G1 X73.975 Y116.819 E.00755
G1 X74.211 Y116.946 E.00844
G1 X74.583 Y116.991 E.01179
G1 X78.641 Y121.05 E.18067
G1 X78.106 Y121.05 E.01684
G1 X70.185 Y113.129 E.35261
G1 X70.185 Y113.664 E.01684
G1 X77.57 Y121.05 E.32877
G1 X77.035 Y121.05 E.01684
G1 X70.185 Y114.199 E.30495
G1 X70.185 Y114.735 E.01687
G1 X76.5 Y121.05 E.28112
G1 X75.964 Y121.05 E.01687
G1 X70.185 Y115.27 E.25728
G1 X70.185 Y115.805 E.01684
G1 X75.429 Y121.05 E.23346
G1 X74.894 Y121.05 E.01684
G1 X70.185 Y116.341 E.20962
